dist/assets/images/icons/whatsup.svg

<svg width="16" height="17" viewBox="0 0 16 17" fill="none" xmlns="http://www.w3.org/2000/svg">
<g clip-path="url(#clip0_611_26872)">
<path d="M13.9961 3.98848C11.7332 0.499885 7.11317 -0.537266 3.53029 1.63132C0.0416869 3.79991 -1.08975 8.51423 1.17312 12.0028L1.3617 12.2857L0.607406 15.1143L3.436 14.36L3.71886 14.5486C4.94458 15.2086 6.26459 15.5857 7.5846 15.5857C8.9989 15.5857 10.4132 15.2086 11.6389 14.4543C15.1275 12.1914 16.1647 7.57137 13.9961 3.98848ZM12.0161 11.2485C11.6389 11.8143 11.1675 12.1914 10.5075 12.2857C10.1303 12.2857 9.6589 12.4743 7.77318 11.72C6.17031 10.9657 4.8503 9.73996 3.90743 8.32566C3.34171 7.66565 3.05885 6.81708 2.96457 5.9685C2.96457 5.21421 3.24743 4.5542 3.71886 4.08277C3.90743 3.8942 4.096 3.79991 4.28458 3.79991H4.75601C4.94458 3.79991 5.13315 3.79991 5.22744 4.17706C5.41601 4.64849 5.88745 5.77993 5.88745 5.87421C5.98173 5.9685 5.98173 6.15707 5.88745 6.25136C5.98173 6.43993 5.88745 6.6285 5.79316 6.72279C5.69887 6.81708 5.60459 7.00565 5.5103 7.09994C5.32173 7.19422 5.22744 7.38279 5.32173 7.57137C5.69887 8.13709 6.17031 8.7028 6.64174 9.17424C7.20746 9.64567 7.77318 10.0228 8.43318 10.3057C8.62175 10.4 8.81033 10.4 8.90461 10.2114C8.9989 10.0228 9.47033 9.55138 9.6589 9.36281C9.84748 9.17424 9.94176 9.17424 10.1303 9.26852L11.6389 10.0228C11.8275 10.1171 12.0161 10.2114 12.1104 10.3057C12.2046 10.5885 12.2046 10.9657 12.0161 11.2485Z" fill="#479458"/>
</g>
<defs>
<clipPath id="clip0_611_26872">
<rect width="16" height="16" fill="white" transform="translate(0 0.5)"/>
</clipPath>
</defs>
</svg>

<svg width="16" height="17" fill="none" xmlns="http://www.w3.org/2000/svg"><g clip-path="url(#clip0_611_26872)"><path d="M13.996 3.988C11.733.5 7.113-.537 3.53 1.631.042 3.8-1.09 8.514 1.173 12.003l.189.283-.755 2.828 2.829-.754.283.189c1.226.66 2.546 1.037 3.866 1.037a7.744 7.744 0 004.054-1.132c3.489-2.263 4.526-6.883 2.357-10.466zm-1.98 7.26c-.377.566-.848.943-1.508 1.038-.378 0-.85.188-2.735-.566-1.603-.754-2.923-1.98-3.866-3.394-.565-.66-.848-1.509-.942-2.358 0-.754.282-1.414.754-1.885.188-.189.377-.283.566-.283h.471c.189 0 .377 0 .471.377.189.471.66 1.603.66 1.697a.287.287 0 010 .377c.095.189 0 .377-.094.472-.094.094-.188.283-.283.377-.188.094-.283.283-.188.471.377.566.848 1.132 1.32 1.603.565.472 1.131.849 1.791 1.132.189.094.377.094.472-.095.094-.188.565-.66.754-.848.188-.189.283-.189.471-.094l1.509.754c.189.094.377.188.471.283.095.283.095.66-.094.943z" fill="#479458"/></g><defs><clipPath id="clip0_611_26872"><path fill="#fff" transform="translate(0 .5)" d="M0 0h16v16H0z"/></clipPath></defs></svg>
